**kern	**kern
*part1	*part1
*staff2	*staff1
*I"Piano	*
*clefF4	*clefG2
*k[b-]	*k[b-]
=1	=1
*^	*
(16CCnLL	16A	(16e-XLL
16Cn	16ryy	16F#X<
16CC	16A	16e-
16CJ	16ryy	16F#J<
8CCJ) 8C	8A	8e-J)
8r	8ryy	8r
(16CCnLL	16A	(16e-LL
16Cn	16ryy	16F#<
16CC	16A	16e-
16CJ	16ryy	16F#J<
8CCJ) 8C	8A	8e-J)
8r	8ryy	8r
=	=	=
(16BBB-LL	16G	(16dLL
16BB-	16rCCyy	16D<
16BBB-	16G	16d
16BB-J	16rCCyy	16DJ<
8BBB-J)	8G	8dJ)
8r	8ryy	8r
*v	*v	*
(16GGGLL	(16dLL 16g
16GG	16B-
16GGG	16d 16g
16GGJ	16B-J
8GGGJ)	8dJ) 8g
*^	*
8r	8ryy	8r
*v	*v	*
=	=
(16GGG#XLL	(16fLL 16b-
16GG#X	16d
16GGG#	16f 16b-
16GG#J	16dJ
8GGG#J)	8fJ) 8b-
8r	8r
(16BBB-LL	(16dLL 16e
16BB-	16G#X
16BBB-	16d 16e
16BB-J	16G#J
8BBB-J)	8dJ) 8e
8r	8r
=	=
*	*^
*	*tremolo	*
2.AAA 2.AA	1a	(32c#XLLL
.	.	32e)
.	.	32c#X
.	.	32e)
.	.	32c#X
.	.	32e)
.	.	32c#X
.	.	32e)
.	.	32c#X
.	.	32e)
.	.	32c#X
.	.	32e)
.	.	32c#X
.	.	32e)
.	.	32c#X
.	.	32e)JJJ
.	.	(32c#LLL
.	.	32e)
.	.	32c#
.	.	32e)
.	.	32c#
.	.	32e)
.	.	32c#
.	.	32e)
(16AAALL	.	32c#
.	.	32e)
16AA	.	32c#
.	.	32e)
16AAA	.	32c#
.	.	32e)
16AAJJ)	.	32c#
.	.	32e)JJJ
=	=	=
1AAA 1AA	1b-	(32dLLL
.	.	32f)
.	.	32d
.	.	32f)
.	.	32d
.	.	32f)
.	.	32d
.	.	32f)
.	.	32d
.	.	32f)
.	.	32d
.	.	32f)
.	.	32d
.	.	32f)
.	.	32d
.	.	32f)JJJ
.	.	(32dLLL
.	.	32f)
.	.	32d
.	.	32f)
.	.	32d
.	.	32f)
.	.	32d
.	.	32f)
.	.	32d
.	.	32f)
.	.	32d
.	.	32f)
.	.	32d
.	.	32f)
.	.	32d
.	.	32f)JJJ
=	=	=
2.AAA 2.AA	1a	(32c#XLLL
.	.	32e)
.	.	32c#X
.	.	32e)
.	.	32c#X
.	.	32e)
.	.	32c#X
.	.	32e)
.	.	32c#X
.	.	32e)
.	.	32c#X
.	.	32e)
.	.	32c#X
.	.	32e)
.	.	32c#X
.	.	32e)JJJ
.	.	(32c#LLL
.	.	32e)
.	.	32c#
.	.	32e)
.	.	32c#
.	.	32e)
.	.	32c#
.	.	32e)
(16AAALL	.	32c#
.	.	32e)
16AA	.	32c#
.	.	32e)
16AAA	.	32c#
.	.	32e)
16AAJJ)	.	32c#
.	.	32e)JJJ
=	=	=
1AAA 1AA	1g#X	(32BnLLL
.	.	32d)
.	.	32Bn
.	.	32d)
.	.	32Bn
.	.	32d)
.	.	32Bn
.	.	32d)
.	.	32Bn
.	.	32d)
.	.	32Bn
.	.	32d)
.	.	32Bn
.	.	32d)
.	.	32Bn
.	.	32d)JJJ
.	.	(32BLLL
.	.	32d)
.	.	32B
.	.	32d)
.	.	32B
.	.	32d)
.	.	32B
.	.	32d)
.	.	32B
.	.	32d)
.	.	32B
.	.	32d)
.	.	32B
.	.	32d)
.	.	32B
.	.	32d)JJJ
*	*Xtremolo	*
*	*v	*v
=	=
*-	*-
!!!system-decoration: {(s1,s2)}
!!!RDF**kern: < = below
